material/.icons/material/dishwasher-off.svg

<svg xmlns="http://www.w3.org/2000/svg" viewBox="0 0 24 24"><path d="M22.11 21.46L2.39 1.73 1.11 3 4 5.89V20c0 1.11.89 2 2 2h12c.58 0 1.1-.25 1.46-.65l1.38 1.38 1.27-1.27M18 20H6V8h.11l4.39 4.37c-.19.32-.35.63-.5.96-.37.61-.6 1.29-.67 2-.02.7.26 1.38.76 1.88a2.7 2.7 0 003.82 0c.25-.24.44-.53.59-.85l3.5 3.53V20M11.2 8H18v6.8l2 2V4a2 2 0 00-2-2H6c-.24 0-.46.05-.67.13L11.2 8M10 4c.55 0 1 .45 1 1s-.45 1-1 1-1-.45-1-1 .45-1 1-1z"/></svg>

<?xml version="1.0" encoding="UTF-8"?><!DOCTYPE svg PUBLIC "-//W3C//DTD SVG 1.1//EN" "http://www.w3.org/Graphics/SVG/1.1/DTD/svg11.dtd"><svg xmlns="http://www.w3.org/2000/svg" xmlns:xlink="http://www.w3.org/1999/xlink" version="1.1" id="mdi-dishwasher-off" width="24" height="24" viewBox="0 0 24 24"><path d="M22.11 21.46L2.39 1.73L1.11 3L4 5.89V20C4 21.11 4.89 22 6 22H18C18.58 22 19.1 21.75 19.46 21.35L20.84 22.73L22.11 21.46M18 20H6V8H6.11L10.5 12.37C10.31 12.69 10.15 13 10 13.33C9.63 13.94 9.4 14.62 9.33 15.33C9.31 16.03 9.59 16.71 10.09 17.21C11.15 18.27 12.86 18.26 13.91 17.21C14.16 16.97 14.35 16.68 14.5 16.36L18 19.89V20M11.2 8H18V14.8L20 16.8V4C20 2.9 19.11 2 18 2H6C5.76 2 5.54 2.05 5.33 2.13L11.2 8M10 4C10.55 4 11 4.45 11 5S10.55 6 10 6 9 5.55 9 5 9.45 4 10 4Z" /></svg>
